img/help-center-faq.svg

<?xml version="1.0" encoding="UTF-8"?>
<svg width="100px" height="100px" viewBox="0 0 100 100" version="1.1" xmlns="http://www.w3.org/2000/svg" xmlns:xlink="http://www.w3.org/1999/xlink">
    <!-- Generator: Sketch 48.2 (47327) - http://www.bohemiancoding.com/sketch -->
    <title>help-center-faq</title>
    <desc>Created with Sketch.</desc>
    <defs>
        <path d="M50,100 C22.3857625,100 0,77.6142375 0,50 C0,22.3857625 22.3857625,0 50,0 C77.6142375,0 100,22.3857625 100,50 C100,77.6142375 77.6142375,100 50,100 Z" id="path-1"></path>
    </defs>
    <g id="Page-1" stroke="none" stroke-width="1" fill="none" fill-rule="evenodd">
        <g id="help-center-faq">
            <g id="Combined-Shape" opacity="0.197067482">
                <use fill="#000000" fill-rule="evenodd" xlink:href="#path-1"></use>
                <path stroke="#000000" stroke-width="4" d="M50,98 C76.509668,98 98,76.509668 98,50 C98,23.490332 76.509668,2 50,2 C23.490332,2 2,23.490332 2,50 C2,76.509668 23.490332,98 50,98 Z"></path>
            </g>
            <path d="M50,84 C31.2223185,84 16,68.7776815 16,50 C16,31.2223185 31.2223185,16 50,16 C68.7776815,16 84,31.2223185 84,50 C84,68.7776815 68.7776815,84 50,84 Z" id="Combined-Shape" fill="#F5F9FF"></path>
            <path d="M50,72.1 C47.1833478,72.1 44.9,69.8166522 44.9,67 C44.9,64.1833478 47.1833478,61.9 50,61.9 C52.8166522,61.9 55.1,64.1833478 55.1,67 C55.1,69.8166522 52.8166522,72.1 50,72.1 Z M46.6,55.1 C46.6,54.5199137 46.6,53.9398275 46.6,53.3597412 C46.6,51.4802916 46.6,50.3619141 46.974,49.5009155 C47.5803082,48.1051122 48.6150576,46.8901386 50.4284,45.8384 C51.859375,44.9948364 57.9293213,42.8811471 57.9293213,39.2907471 C57.9293213,35.7003471 54.9020463,33.13302 50.4284,33.3009033 C47.4459691,33.4128255 44.9961745,35.0965007 43.0790161,38.3519287 L38.2693359,35.9733398 C38.740805,34.8490676 41.1506766,27.9 50.4284,27.9 C59.7061234,27.9 63.8826416,32.7607172 63.8826416,39.2907471 C63.8826416,45.1741682 58.3091758,48.4336426 56.6844116,49.1809204 C55.0596474,49.9281982 53.9763872,50.7970669 53.6556641,51.4856323 C53.4,52.0345215 53.4,52.8864675 53.4,54.9370972 C53.4,54.9913981 53.4,55.0456991 53.4,55.1 C53.4,56.9777681 51.8777681,58.5 50,58.5 C48.1222319,58.5 46.6,56.9777681 46.6,55.1 Z" id="Combined-Shape" fill="#D3E0EB"></path>
        </g>
    </g>
</svg>

<svg width="100" height="100" viewBox="0 0 100 100" xmlns="http://www.w3.org/2000/svg" xmlns:xlink="http://www.w3.org/1999/xlink"><defs><path d="M50 100C22.386 100 0 77.614 0 50S22.386 0 50 0s50 22.386 50 50-22.386 50-50 50z" id="a"/></defs><g fill="none" fill-rule="evenodd"><g opacity=".197"><use fill="#000" xlink:href="#a"/><path stroke="#000" stroke-width="4" d="M50 98c26.51 0 48-21.49 48-48S76.51 2 50 2 2 23.49 2 50s21.49 48 48 48z"/></g><path d="M50 84c-18.778 0-34-15.222-34-34s15.222-34 34-34 34 15.222 34 34-15.222 34-34 34z" fill="#F5F9FF"/><path d="M50 72.1a5.1 5.1 0 1 1 0-10.2 5.1 5.1 0 0 1 0 10.2zm-3.4-17v-1.74c0-1.88 0-2.998.374-3.86.606-1.395 1.641-2.61 3.454-3.662 1.431-.843 7.501-2.957 7.501-6.547s-3.027-6.158-7.5-5.99c-2.983.112-5.433 1.796-7.35 5.05l-4.81-2.378c.472-1.124 2.882-8.073 12.16-8.073 9.277 0 13.454 4.86 13.454 11.39 0 5.884-5.574 9.144-7.199 9.89-1.624.748-2.708 1.617-3.028 2.306-.256.549-.256 1.4-.256 3.451v.163a3.4 3.4 0 0 1-6.8 0z" fill="#D3E0EB"/></g></svg>
